X: 1
T:Larry Redican's No. 1
M:C|
L:1/8
Q:240
C:Larry Redican
R:reel
K:F
AdcA GcAG | FAGF DGFD | CA,~A,2 CDFG | AF~F2 GABG |
AdcA GcAG | FAGF DGFD | CA,~A,2 CDFG |1 AFGE F3  G :|2 AFGE FGAB |
|: ~c3   A {d}BAGA | F2 AF GFDF | CF~F2 CF~F2 | BAGF DFGA |
{d}BABd cAGF | {e}d^cde f=cAF | CF~F2 DFBd |1 cAGA FGAB :|2 cAGA F4  ||
